X: 8768
T: Cuckoo Clock, The
R: jig
M: 6/8
K: Dmajor
|:d|fed A2 d|F2 d efg|fed A2 d|BB/c/d gBd|
A2 d F2 d|edB Ad/e/f|age f2 d|B/c/dB G2:|
|:g|f2 a gfe|f2 A dcd|B^AB dGG|BGG AdA|
F2 d edB|Adc de/f/g|age f2 d|BdB G2:|

